X:1
T:Hector the Hero
C:James Scott Skinner
L:1/8
M:none
I:linebreak $
K:D
V:1 treble nm="Voice" snm="Voice"
V:1
 E6- |1 E4 DE | F3 E D2 ||2 B3 A F2 | A2 D2 E2 ||2 F d3 B2 ||2 A D3 FG ||$ E4 D2 |"D" D6- |1 %9
 D4 DE :|2 D3 A d2 c2 || B3 F B2 |"G" d3 c B2 |"D" A6- | A4 AB |$ A2 D2 F2 |"G" A2 D2 FG | E6- | %18
 E3 A dc | B3 F B2 |"G" d3 c B2 |"D" A2 D2 E2 | %22
